X: 146202
T: The KRAKOVIAK
%R: krakowiak
B: James Kerr "Merry Melodies" v.1 p.46 s.2 #2
Z: 2016 John Chambers <jc:trillian.mit.edu>
M: 2/4
L: 1/16
K: G
uG4 |\
F2A2c2e2 | d2B2 B4 |\
vd2(3(ded) c2A2 | G2B2B2G2 |\
F2A2c2e2 | d2B2 B4 |\
vd2(3(ded) c2A2 | A2G2G2 :|
|: uG2 |\
c2e2 vg3ve | ud2B2 B4 |\
d2(3(ded) c2A2 | G2B2B2 zuB |\
c2e2 vg3ve | ud2B2 B4 |\
d2(3(ded) c2A2 | A2G2G2 :|

%%sep 1 1 500
%%sep 1 1 500

